!!!COM: Peter Cornelius
!!!CNT: Deutsch
!!!TXO: Deutsch
!!!OTL: Untreu
!!!LYR: Cornelius
!!!OPR: Six Songs
!!!OPS: Op.1
!!!ONM: No. 1
!!!ENC: Ben Fuhrman
!!!YOR: CD Sheet Music, Mid-Romantic German Lieder: The Ultimate Collection.
!!!YOR: CD Sheet Music, LLC 2001
!!!ODT: 1853 
!!NB: Only vocal melody encoded.
!!NB: First instance of melodic material only encoded.
!!created: 2/1/10 1:10PM
!!proofed and posted: 2/1/10 1:13PM
**kern	**silbe
*clef G2	*
*k[b-e-a-d-]	*
*M3/4	*
*MM[Etwas langsam]	*
{16a-	{Mein
8.a-	Lied
16a-	ist
=1	=1
[4a-	klein,
8a-]	|
16r	.
16a-	braucht
8.g	we-
16b-	-nig
=2	=2
4a-}	Platz:}
8.r	.
{16a-	{ich
8.a-	nann-
16a-	-te
=3	=3
[4a-	mein
8a-]	|
16r	.
16a-	viel-
8.g-	-lie-
16b-	-ben
=4	=4
4a-}	Schatz.}
8.r	.
{16cc	{Ich
8.cc	sing'
16cc	es
=5	=5
[4cc	scheu
8cc]	|
16r	.
16cc	und
8.b-	lei-
16dd-	-se
=6	=6
4cc}	nur:}
8.r	.
{16cc	{er
8.cc	schwur
16cc	mir
=7	=7
[4cc	Treu
8.cc]	|
16cc	und
8.b-	brach
16dd-	den
=8	=8
[4cc	Schwur.
8cc]}	|}
16r	.
{16cc	{Auf
8.cc	im-
16cc	-mer
=9	=9
4.ff	floh'n
8ff	mich
8ff	Glu2ck
8ff	und
=10	=10
4.een	Fried':
8een	da
8een	habt
8een	ihr
=11	=11
8.ee-	schon
16ee-	das
4.ff	End
8ee-	vom
=12	=12
2dd-}	Lied,}
{4dd-	{das
=13	=13
2cc	End'
(8a-	vom
8g-)	|
=14	=14
[2.f	Lied.
=15	=15
2f]}	|}
4r	.
==	==
*-	*-